src/lib/packages/icons/src/assets/line/coffee-bean.svg

<svg width="24" height="24" viewBox="0 0 24 24" fill="none" xmlns="http://www.w3.org/2000/svg">
<path d="M19.6199 4.50017C19.6199 4.50017 19.6199 4.50016 19.6099 4.49016C19.5999 4.47016 19.5799 4.46017 19.5699 4.44017C16.1799 1.05017 10.0299 1.69015 5.85988 5.86015C1.68988 10.0302 1.0599 16.1802 4.4399 19.5702C5.9099 21.0402 7.88989 21.7502 9.99989 21.7502C12.7799 21.7502 15.7799 20.5202 18.1499 18.1602C22.2999 14.0102 22.9399 7.91018 19.6199 4.51018V4.50017ZM6.91988 6.92018C8.99988 4.84018 11.6199 3.75017 13.9999 3.75017C15.6599 3.75017 17.1999 4.28016 18.3699 5.37016C18.5199 5.99016 18.4199 6.63015 18.0399 7.30015C17.0899 9.00015 14.5899 10.6002 11.8399 11.2802C8.63992 12.0702 5.82989 13.9102 4.67989 15.9802C4.52989 16.2402 4.41991 16.5002 4.32991 16.7702C3.03991 13.8702 3.98989 9.85018 6.92989 6.92018H6.91988ZM17.0899 17.0902C13.5699 20.6102 8.49987 21.2802 5.65987 18.6402C5.50987 18.0202 5.60987 17.3702 5.97987 16.7102C6.91987 15.0202 9.4199 13.4202 12.1899 12.7402C15.3699 11.9502 18.1799 10.1102 19.3399 8.04018C19.4899 7.78018 19.5999 7.52017 19.6899 7.25017C20.9699 10.1502 20.0099 14.1602 17.0799 17.0902H17.0899Z" fill="currentColor"/>
</svg>

<svg xmlns="http://www.w3.org/2000/svg" width="24" height="24" fill="none"><path fill="currentColor" d="m19.62 4.5-.01-.01c-.01-.02-.03-.03-.04-.05-3.39-3.39-9.54-2.75-13.71 1.42-4.17 4.17-4.8 10.32-1.42 13.71 1.47 1.47 3.45 2.18 5.56 2.18 2.78 0 5.78-1.23 8.15-3.59 4.15-4.15 4.79-10.25 1.47-13.65V4.5ZM6.92 6.92C9 4.84 11.62 3.75 14 3.75c1.66 0 3.2.53 4.37 1.62.15.62.05 1.26-.33 1.93-.95 1.7-3.45 3.3-6.2 3.98-3.2.79-6.01 2.63-7.16 4.7-.15.26-.26.52-.35.79-1.29-2.9-.34-6.92 2.6-9.85h-.01Zm10.17 10.17c-3.52 3.52-8.59 4.19-11.43 1.55-.15-.62-.05-1.27.32-1.93.94-1.69 3.44-3.29 6.21-3.97 3.18-.79 5.99-2.63 7.15-4.7.15-.26.26-.52.35-.79 1.28 2.9.32 6.91-2.61 9.84h.01Z"/></svg>
